X:145
T: High Jig
T: Port Ard (An)
S: B.Breathnach: "Ceol Rince na hEireann" II/34
Z: B.Black
L: 1/8
M: 6/8
R: jig
K: Ador
a/b/|c'ba bag|efg a2b|c'ba b2a|ged e2 a/a/|
c'aa b2a|gef g2g|ged c2d|eAA A2 :|
B|ccc ddd|eaf ged|cAB c2d|edc ded|
cAB c2d|eaa gaa|ged c2d|eAA A2 :|

